; generated by PrusaSlicer 2.2.0+ on 2020-04-04 at 22:07:03 UTC

; 

; external perimeters extrusion width = 0.80mm
; perimeters extrusion width = 0.50mm
; infill extrusion width = 0.50mm
; solid infill extrusion width = 0.50mm
; top infill extrusion width = 0.45mm
; first layer extrusion width = 0.42mm

M73 P0 R33
M73 Q0 S33
M201 X1000 Y1000 Z1000 E5000 ; sets maximum accelerations, mm/sec^2
M203 X200 Y200 Z12 E120 ; sets maximum feedrates, mm/sec
M204 P1250 R1250 T1250 ; sets acceleration (P, T) and retract acceleration (R), mm/sec^2
M205 X8.00 Y8.00 Z0.40 E4.50 ; sets the jerk limits, mm/sec
M205 S0 T0 ; sets the minimum extruding and travel feed rate, mm/sec
M107
M862.3 P "MK3S" ; printer model check
M862.1 P0.4 ; nozzle diameter check
M115 U3.8.1 ; tell printer latest fw version
G90 ; use absolute coordinates
M83 ; extruder relative mode
M104 S250 ; set extruder temp
M140 S95 ; set bed temp
M190 S95 ; wait for bed temp
M109 S250 ; wait for extruder temp
G28 W ; home all without mesh bed level
G80 ; mesh bed leveling

;go outside print area
M104 S250 ; set extruder temp
G1 X1.0 F1000.0 ; ADJUST FOR EACH PRINT (2N-1 WHERE N=PRINT #)
G1 Z0.4 F1000.0
; purge line
G1 Y55.0 F2000.0
G1 Z0.3 F1000.0
G92 E0.0
G1 Y200.0 E25.0 F2200.0
M73 Q0 S33
M73 P0 R33
M73 Q0 S34
M73 P0 R34
G1 X2.0 F1000.0 ; ADJUST FOR EACH PRINT (2N WHERE N=PRINT #)
G1 Y55.0 E25 F1400.0
G1 Z0.20 F1000.0
G1 Y5.0 E4.0 F1000.0

M221 S95
G21 ; set units to millimeters
G90 ; use absolute coordinates
M83 ; use relative distances for extrusion
M900 K45 ; Filament gcode
;BEFORE_LAYER_CHANGE
G92 E0.0
;0.2


G1 Z0.200 F10800.000
;AFTER_LAYER_CHANGE
;0.2
G1 E-1.40000 F2100.00000
G1 Z0.400 F10800.000
G1 X111.386 Y45.927
G1 Z0.200
G1 E1.40000 F2100.00000
M204 S1000
G1 F1200.000
G1 X112.287 Y43.756 E0.07294
G1 X113.287 Y41.608 E0.07355
G1 X114.382 Y39.488 E0.07408
G1 X115.570 Y37.396 E0.07466
G1 X116.846 Y35.339 E0.07514
G1 X118.170 Y33.374 E0.07354
G1 X119.651 Y31.346 E0.07797
G1 X121.138 Y29.472 E0.07426
G1 X122.791 Y27.550 E0.07869
G1 X124.487 Y25.739 E0.07701
G1 X126.266 Y23.993 E0.07738
G1 X128.125 Y22.314 E0.07776
G1 X130.058 Y20.703 E0.07811
G1 X132.060 Y19.163 E0.07842
G1 X134.128 Y17.696 E0.07869
G1 X136.255 Y16.304 E0.07890
G1 X138.377 Y15.026 E0.07691
G1 X140.667 Y13.761 E0.08119
G1 X142.935 Y12.623 E0.07878
G1 X145.257 Y11.570 E0.07913
G1 X147.608 Y10.615 E0.07876
G1 X149.992 Y9.754 E0.07870
G1 X152.403 Y8.971 E0.07867
G1 X154.770 Y8.270 E0.07663
G1 X157.287 Y7.577 E0.08104
G1 X162.201 Y6.314 E0.15749
G1 X165.167 Y5.947 E0.09279
G1 X168.264 Y5.659 E0.09654
G1 X171.306 Y5.465 E0.09461
G1 X174.663 Y5.357 E0.10427
G1 X177.776 Y5.465 E0.09668
G1 X180.818 Y5.659 E0.09463
G1 X183.913 Y5.947 E0.09648
G1 X186.883 Y6.314 E0.09288
G1 X191.811 Y7.582 E0.15796
G1 X194.261 Y8.255 E0.07885
G1 X196.693 Y8.975 E0.07874
G1 X199.039 Y9.737 E0.07656
G1 X201.484 Y10.619 E0.08069
G1 X203.772 Y11.549 E0.07666
G1 X206.148 Y12.624 E0.08096
G1 X208.422 Y13.766 E0.07900
G1 X210.653 Y14.995 E0.07904
G1 X212.833 Y16.308 E0.07899
G1 X214.959 Y17.699 E0.07886
G1 X217.025 Y19.166 E0.07865
G1 X219.027 Y20.705 E0.07839
G1 X220.959 Y22.315 E0.07807
G1 X222.816 Y23.994 E0.07773
G1 X224.595 Y25.740 E0.07735
G1 X226.290 Y27.550 E0.07698
G1 X227.902 Y29.419 E0.07662
G1 X229.429 Y31.344 E0.07627
G1 X230.873 Y33.318 E0.07591
G1 X232.233 Y35.335 E0.07553
G1 X233.508 Y37.392 E0.07511
G1 X234.696 Y39.483 E0.07466
G1 X235.792 Y41.604 E0.07412
G1 X236.815 Y43.806 E0.07535
G1 X237.695 Y45.926 E0.07126
G1 X238.493 Y48.109 E0.07215
G1 X239.213 Y50.318 E0.07211
G1 X239.872 Y52.541 E0.07198
G1 X240.510 Y54.859 E0.07463
G1 X241.233 Y57.019 E0.07070
G1 X241.982 Y59.859 E0.09119
G1 X242.392 Y61.629 E0.05637
G1 X242.635 Y62.806 E0.03733
G1 X243.055 Y65.063 E0.07124
G1 X243.446 Y67.625 E0.08047
G1 X243.795 Y70.643 E0.09429
G1 X243.925 Y72.195 E0.04836
G1 X244.053 Y74.167 E0.06133
G1 X244.147 Y76.665 E0.07760
G1 X244.162 Y78.811 E0.06660
G1 X244.080 Y82.155 E0.10384
G1 X243.855 Y85.635 E0.10823
G1 X243.532 Y88.747 E0.09713
G1 X243.149 Y91.599 E0.08931
G1 X242.940 Y92.900 E0.04092
G1 X242.655 Y94.559 E0.05222
G1 X242.200 Y96.888 E0.07368
G1 X241.308 Y100.833 E0.12556
G1 X240.687 Y103.232 E0.07691
G1 X240.131 Y105.209 E0.06376
G1 X239.010 Y108.873 E0.11893
G1 X238.770 Y109.607 E0.02395
G1 X237.104 Y114.339 E0.15575
G1 X235.037 Y119.552 E0.17407
G1 X232.712 Y124.836 E0.17917
G1 X229.879 Y130.689 E0.20188
G1 X227.378 Y135.454 E0.16704
G1 X224.629 Y140.374 E0.17495
G1 X222.535 Y143.930 E0.12809
G1 X218.882 Y149.855 E0.21606
G1 X216.276 Y153.914 E0.14973
G1 X208.848 Y165.080 E0.41627
G1 X208.328 Y165.870 E0.02937
G1 X207.492 Y167.205 E0.04890
G1 X206.448 Y168.907 E0.06198
G1 X205.328 Y170.907 E0.07115
G1 X204.897 Y171.735 E0.02898
G1 X204.433 Y172.707 E0.03343
G1 X204.085 Y173.514 E0.02726
G1 X203.820 Y174.200 E0.02285
G1 X203.479 Y175.266 E0.03472
G1 X203.354 Y175.770 E0.01614
G1 X203.243 Y176.361 E0.01864
G1 X203.184 Y176.867 E0.01582
G1 X203.164 Y177.258 E0.01216
G1 X203.178 Y177.748 E0.01520
G1 X203.231 Y178.173 E0.01331
G1 X203.316 Y178.549 E0.01195
G1 X203.453 Y178.952 E0.01321
G1 X203.639 Y179.336 E0.01324
G1 X203.866 Y179.687 E0.01298
G1 X204.144 Y180.018 E0.01343
G1 X204.371 Y180.240 E0.00986
G1 X204.776 Y180.562 E0.01606
G1 X205.129 Y180.790 E0.01304
G1 X205.764 Y181.115 E0.02214
G1 X206.446 Y181.368 E0.02259
G1 X207.047 Y181.525 E0.01927
G1 X207.846 Y181.642 E0.02506
G1 X208.608 Y181.655 E0.02367
G1 X209.281 Y181.581 E0.02100
G1 X209.934 Y181.415 E0.02091
G1 X210.500 Y181.178 E0.01906
G1 X210.919 Y180.930 E0.01510
G1 X211.393 Y180.544 E0.01900
G1 X211.742 Y180.156 E0.01617
G1 X212.057 Y179.685 E0.01760
G1 X212.294 Y179.200 E0.01676
G1 X212.514 Y178.548 E0.02136
G1 X212.662 Y177.790 E0.02397
G1 X212.714 Y177.182 E0.01894
G1 X212.794 Y177.152 E0.00265
G1 X212.869 Y176.963 E0.00632
G1 X212.917 Y176.981 E0.00159
G1 X213.033 Y177.233 E0.00863
G1 X213.092 Y177.237 E0.00184
G1 X213.047 Y177.757 E0.01623
G1 X212.940 Y178.384 E0.01973
G1 X212.790 Y178.943 E0.01798
G1 X212.593 Y179.459 E0.01713
G1 X212.437 Y179.775 E0.01093
G1 X212.175 Y180.202 E0.01555
G1 X211.876 Y180.583 E0.01504
G1 X211.542 Y180.919 E0.01472
G1 X211.184 Y181.204 E0.01418
G1 X210.799 Y181.446 E0.01413
G1 X210.392 Y181.644 E0.01406
G1 X209.829 Y181.841 E0.01849
G1 X209.387 Y181.944 E0.01410
G1 X208.791 Y182.021 E0.01863
G1 X208.339 Y182.039 E0.01406
G1 X207.733 Y182.010 E0.01883
G1 X207.279 Y181.951 E0.01419
G1 X206.686 Y181.828 E0.01880
G1 X206.114 Y181.656 E0.01853
G1 X205.571 Y181.441 E0.01815
G1 X205.061 Y181.186 E0.01770
G1 X204.586 Y180.889 E0.01739
G1 X204.162 Y180.558 E0.01669
G1 X203.799 Y180.199 E0.01585
G1 X203.490 Y179.808 E0.01546
G1 X203.240 Y179.388 E0.01518
G1 X203.046 Y178.941 E0.01513
G1 X202.906 Y178.465 E0.01541
G1 X202.821 Y177.967 E0.01568
G1 X202.787 Y177.319 E0.02014
G1 X202.828 Y176.626 E0.02156
G1 X202.912 Y176.053 E0.01798
G1 X203.039 Y175.458 E0.01890
G1 X203.212 Y174.832 E0.02016
G1 X203.544 Y173.857 E0.03195
G1 X203.811 Y173.187 E0.02240
G1 X204.447 Y171.794 E0.04753
G1 X205.214 Y170.314 E0.05174
G1 X206.103 Y168.750 E0.05585
G1 X207.119 Y167.085 E0.06054
G1 X208.168 Y165.422 E0.06104
G1 X215.931 Y153.753 E0.43504
G1 X218.620 Y149.564 E0.15450
G1 X221.807 Y144.402 E0.18834
G1 X224.258 Y140.261 E0.14936
G1 X227.000 Y135.362 E0.17426
G1 X229.561 Y130.482 E0.17109
G1 X232.082 Y125.293 E0.17905
G1 X234.503 Y119.845 E0.18506
G1 X236.664 Y114.433 E0.18090
G1 X237.632 Y111.744 E0.08870
G1 X238.409 Y109.488 E0.07407
G1 X239.451 Y106.174 E0.10782
G1 X240.278 Y103.300 E0.09284
G1 X240.996 Y100.515 E0.08927
G1 X241.661 Y97.600 E0.09282
G1 X242.333 Y94.199 E0.10760
G1 X242.732 Y91.830 E0.07458
G1 X243.139 Y88.869 E0.09277
G1 X243.452 Y85.898 E0.09273
G1 X243.661 Y82.916 E0.09280
G1 X243.768 Y79.925 E0.09292
G1 X243.775 Y76.923 E0.09317
G1 X243.665 Y73.913 E0.09350
G1 X243.437 Y70.863 E0.09493
G1 X243.109 Y67.944 E0.09119
G1 X242.647 Y64.907 E0.09536
G1 X242.073 Y61.933 E0.09402
G1 X241.393 Y59.063 E0.09155
G1 X240.896 Y57.205 E0.05968
G1 X240.411 Y55.794 E0.04632
G1 X240.067 Y54.864 E0.03076
G1 X239.240 Y52.870 E0.06704
G1 X238.339 Y50.840 E0.06892
G1 X237.358 Y48.780 E0.07082
G1 X236.303 Y46.752 E0.07096
G1 X235.726 Y45.725 E0.03659
G1 X235.125 Y44.711 E0.03658
G1 X233.932 Y42.829 E0.06916
G1 X232.623 Y40.942 E0.07127
G1 X231.196 Y39.054 E0.07349
G1 X229.783 Y37.323 E0.06936
G1 X228.259 Y35.595 E0.07152
G1 X226.672 Y33.927 E0.07146
G1 X225.035 Y32.338 E0.07081
G1 X223.326 Y30.807 E0.07122
G1 X221.538 Y29.334 E0.07192
G1 X219.728 Y27.966 E0.07042
G1 X217.845 Y26.661 E0.07113
G1 X215.890 Y25.421 E0.07185
G1 X213.930 Y24.282 E0.07035
G1 X211.908 Y23.208 E0.07107
G1 X209.848 Y22.211 E0.07104
G1 X207.781 Y21.305 E0.07006
G1 X205.627 Y20.457 E0.07185
G1 X203.474 Y19.706 E0.07079
G1 X201.312 Y19.045 E0.07018
G1 X199.113 Y18.468 E0.07056
G1 X196.900 Y17.979 E0.07035
G1 X194.656 Y17.559 E0.07087
G1 X192.484 Y17.213 E0.06826
G1 X190.185 Y16.891 E0.07208
G1 X183.049 Y16.005 E0.22320
G1 X180.261 Y15.739 E0.08692
G1 X177.502 Y15.557 E0.08583
G1 X174.540 Y15.446 E0.09201
G1 X171.580 Y15.557 E0.09195
G1 X168.821 Y15.739 E0.08582
G1 X166.032 Y16.005 E0.08698
G1 X158.897 Y16.891 E0.22318
G1 X156.597 Y17.213 E0.07207
G1 X154.426 Y17.559 E0.06825
G1 X152.181 Y17.979 E0.07090
G1 X149.968 Y18.468 E0.07034
G1 X147.770 Y19.045 E0.07054
G1 X145.588 Y19.712 E0.07084
G1 X143.455 Y20.457 E0.07013
G1 X141.330 Y21.293 E0.07089
G1 X139.235 Y22.211 E0.07098
G1 X137.201 Y23.195 E0.07014
G1 X135.152 Y24.282 E0.07200
G1 X133.191 Y25.421 E0.07039
G1 X131.238 Y26.661 E0.07182
G1 X129.354 Y27.966 E0.07113
G1 X127.543 Y29.334 E0.07046
G1 X125.773 Y30.792 E0.07120
G1 X124.047 Y32.338 E0.07191
G1 X122.410 Y33.927 E0.07081
G1 X120.776 Y35.648 E0.07365
G1 X119.299 Y37.323 E0.06933
G1 X117.843 Y39.107 E0.07147
G1 X116.459 Y40.943 E0.07138
G1 X115.150 Y42.829 E0.07126
G1 X113.924 Y44.763 E0.07108
G1 X113.329 Y45.772 E0.03637
G1 X112.782 Y46.746 E0.03466
G1 X111.729 Y48.769 E0.07078
G1 X110.745 Y50.836 E0.07108
G1 X109.798 Y52.973 E0.07255
G1 X108.838 Y55.327 E0.07891
G1 X108.186 Y57.205 E0.06172
G1 X107.689 Y59.063 E0.05968
G1 X106.992 Y62.013 E0.09410
G1 X106.427 Y64.952 E0.09290
G1 X105.973 Y67.944 E0.09393
G1 X105.640 Y70.903 E0.09245
G1 X105.415 Y73.949 E0.09480
G1 X105.307 Y76.922 E0.09236
G1 X105.307 Y79.925 E0.09321
G1 X105.397 Y82.433 E0.07790
G1 X105.630 Y85.898 E0.10780
G1 X105.942 Y88.870 E0.09275
G1 X106.084 Y89.925 E0.03304
G1 X106.349 Y91.830 E0.05971
G1 X106.831 Y94.672 E0.08950
G1 X107.421 Y97.600 E0.09271
G1 X108.086 Y100.515 E0.09281
G1 X108.803 Y103.299 E0.08923
G1 X109.631 Y106.175 E0.09289
G1 X110.520 Y109.035 E0.09299
G1 X111.450 Y111.744 E0.08888
G1 X112.466 Y114.562 E0.09300
G1 X114.637 Y119.983 E0.18126
G1 X116.803 Y124.865 E0.16576
G1 X119.521 Y130.481 E0.19369
G1 X122.141 Y135.472 E0.17497
G1 X124.931 Y140.446 E0.17701
G1 X127.634 Y144.996 E0.16429
G1 X130.995 Y150.405 E0.19767
G1 X133.151 Y153.753 E0.12360
G1 X140.913 Y165.422 E0.43504
G1 X141.962 Y167.086 E0.06105
G1 X142.979 Y168.750 E0.06055
G1 X143.868 Y170.315 E0.05588
G1 X144.255 Y171.045 E0.02563
G1 X144.976 Y172.515 E0.05084
G1 X145.279 Y173.206 E0.02340
G1 X145.660 Y174.195 E0.03289
G1 X145.961 Y175.147 E0.03101
G1 X146.169 Y176.047 E0.02868
G1 X146.279 Y176.908 E0.02692
G1 X146.290 Y177.586 E0.02107
G1 X146.260 Y177.974 E0.01207
G1 X146.201 Y178.345 E0.01166
G1 X146.037 Y178.938 E0.01911
G1 X145.784 Y179.497 E0.01904
G1 X145.446 Y180.006 E0.01897
G1 X145.014 Y180.473 E0.01975
G1 X144.712 Y180.730 E0.01231
G1 X144.382 Y180.966 E0.01261
G1 X143.769 Y181.319 E0.02196
G1 X143.374 Y181.501 E0.01350
G1 X142.965 Y181.657 E0.01357
G1 X142.393 Y181.829 E0.01855
G1 X142.104 Y181.895 E0.00919
G1 X141.345 Y182.010 E0.02383
G1 X140.890 Y182.037 E0.01416
G1 X140.443 Y182.031 E0.01387
G1 X139.693 Y181.944 E0.02345
G1 X139.250 Y181.840 E0.01411
G1 X138.826 Y181.699 E0.01390
G1 X138.415 Y181.516 E0.01394
G1 X138.153 Y181.371 E0.00931
G1 X137.773 Y181.112 E0.01427
G1 X137.541 Y180.921 E0.00933
G1 X137.205 Y180.583 E0.01479
G1 X137.004 Y180.337 E0.00988
G1 X136.725 Y179.919 E0.01560
G1 X136.564 Y179.619 E0.01056
G1 X136.353 Y179.122 E0.01674
G1 X136.237 Y178.764 E0.01171
G1 X136.100 Y178.177 E0.01871
G1 X136.009 Y177.537 E0.02006
G1 X135.994 Y177.234 E0.00941
G1 X136.049 Y177.230 E0.00170
G1 X136.166 Y176.983 E0.00849
G1 X136.208 Y176.967 E0.00140
G1 X136.289 Y177.143 E0.00601
G1 X136.374 Y177.184 E0.00292
G1 X136.419 Y177.788 E0.01879
G1 X136.535 Y178.414 E0.01977
G1 X136.718 Y179.022 E0.01971
G1 X136.931 Y179.510 E0.01653
G1 X137.249 Y180.035 E0.01905
G1 X137.582 Y180.437 E0.01622
G1 X137.943 Y180.767 E0.01517
G1 X138.435 Y181.100 E0.01845
G1 X138.891 Y181.320 E0.01572
G1 X139.415 Y181.495 E0.01712
G1 X140.011 Y181.613 E0.01886
G1 X140.524 Y181.657 E0.01599
G1 X141.095 Y181.651 E0.01772
G1 X141.768 Y181.575 E0.02104
G1 X142.364 Y181.446 E0.01893
G1 X143.033 Y181.231 E0.02181
G1 X143.658 Y180.953 E0.02124
G1 X144.137 Y180.676 E0.01716
G1 X144.529 Y180.394 E0.01500
G1 X144.884 Y180.074 E0.01485
G1 X145.183 Y179.730 E0.01412
G1 X145.443 Y179.335 E0.01469
G1 X145.663 Y178.864 E0.01614
G1 X145.796 Y178.435 E0.01394
G1 X145.893 Y177.868 E0.01787
G1 X145.918 Y177.380 E0.01518
G1 X145.902 Y176.915 E0.01444
G1 X145.834 Y176.329 E0.01832
G1 X145.707 Y175.678 E0.02058
G1 X145.463 Y174.791 E0.02855
G1 X145.256 Y174.183 E0.01993
G1 X144.996 Y173.514 E0.02228
G1 X144.649 Y172.707 E0.02725
G1 X144.185 Y171.735 E0.03345
G1 X143.527 Y170.477 E0.04406
G1 X142.600 Y168.851 E0.05810
G1 X141.523 Y167.099 E0.06385
G1 X140.754 Y165.870 E0.04497
G1 X140.234 Y165.080 E0.02939
G1 X132.805 Y153.915 E0.41627
G1 X130.200 Y149.855 E0.14973
G1 X126.546 Y143.930 E0.21607
G1 X124.453 Y140.374 E0.12808
G1 X122.581 Y137.047 E0.11851
G1 X121.703 Y135.455 E0.05644
G1 X119.203 Y130.689 E0.16705
G1 X116.400 Y124.905 E0.19953
G1 X114.044 Y119.552 E0.18152
G1 X111.977 Y114.340 E0.17406
G1 X111.151 Y112.028 E0.07620
G1 X110.196 Y109.254 E0.09106
G1 X109.224 Y106.127 E0.10165
G1 X108.523 Y103.696 E0.07852
G1 X107.774 Y100.833 E0.09189
G1 X107.072 Y97.766 E0.09765
G1 X106.511 Y95.002 E0.08756
G1 X106.141 Y92.900 E0.06624
G1 X105.933 Y91.599 E0.04090
G1 X105.544 Y88.684 E0.09127
G1 X105.226 Y85.635 E0.09518
G1 X105.005 Y82.229 E0.10594
G1 X104.927 Y79.725 E0.07776
G1 X104.935 Y76.665 E0.09500
G1 X105.032 Y74.074 E0.08047
G1 X105.156 Y72.195 E0.05845
G1 X105.287 Y70.643 E0.04837
G1 X105.636 Y67.625 E0.09430
G1 X106.035 Y65.011 E0.08207
G1 X106.447 Y62.806 E0.06962
G1 X106.690 Y61.629 E0.03733
G1 X107.111 Y59.811 E0.05792
G1 X107.854 Y57.003 E0.09017
G1 X108.575 Y54.844 E0.07063
G1 X109.206 Y52.553 E0.07378
G1 X109.846 Y50.389 E0.07006
G1 X110.585 Y48.118 E0.07412
G1 X111.366 Y45.983 E0.07056
G1 F8640.000
G1 X112.287 Y43.756 E-0.55646
G1 X113.287 Y41.608 E-0.54708
G1 X113.737 Y40.737 E-0.22646
G1 E-0.07000 F2100.00000
G1 Z0.400 F10800.000
G1 X109.427 Y53.582
G1 Z0.200
G1 E1.40000 F2100.00000
G1 F1200.000
G1 X109.261 Y53.417 E0.00729
G1 X109.377 Y52.998 E0.01351
G1 X109.452 Y53.073 E0.00330
G1 X109.610 Y52.698 E0.01267
G1 X109.493 Y52.580 E0.00518
G1 X109.615 Y52.168 E0.01336
G1 X109.775 Y52.328 E0.00703
G1 X109.939 Y51.957 E0.01259
G1 X109.737 Y51.755 E0.00888
G1 X109.859 Y51.343 E0.01336
G1 X110.103 Y51.587 E0.01073
G1 X110.267 Y51.217 E0.01259
G1 X109.981 Y50.931 E0.01258
G1 X110.103 Y50.519 E0.01336
G1 X110.431 Y50.847 E0.01443
G1 X110.600 Y50.483 E0.01250
G1 X110.233 Y50.115 E0.01616
G1 X110.364 Y49.712 E0.01318
G1 X110.772 Y50.121 E0.01797
G1 X110.945 Y49.759 E0.01246
G1 X110.495 Y49.309 E0.01978
G1 X110.626 Y48.906 E0.01318
G1 X111.117 Y49.397 E0.02159
G1 X111.289 Y49.035 E0.01246
G1 X110.757 Y48.503 E0.02340
G1 X110.891 Y48.103 E0.01311
G1 X111.461 Y48.673 E0.02507
G1 X111.643 Y48.321 E0.01232
G1 X111.034 Y47.712 E0.02678
G1 X111.177 Y47.321 E0.01295
G1 X111.826 Y47.970 E0.02853
G1 X112.009 Y47.619 E0.01231
G1 X111.321 Y46.930 E0.03028
G1 X111.464 Y46.539 E0.01295
G1 X112.192 Y47.267 E0.03203
G1 X112.375 Y46.916 E0.01231
G1 X111.607 Y46.148 E0.03378
G1 X111.759 Y45.766 E0.01278
G1 X112.559 Y46.566 E0.03516
